X: 18
T:Hundred Pipers
M:6/8
L:1/8
R:Jig
N:http://www.lesession.co.uk
Z:Steve Mansfield 1998-2001
K:G
GA | B2 D DED | E2 G G2 e | d2 B BAG | B2 A AGA | 
B2 D DED | E2 G G2 e | d2 B ABA | G3 G :: GA | 
B2 d dBd | e2 f gfe | d2 B BAG | B2 A AGA | 
B2 d dBd | e2 f gfe | d2 B ABA | G3 G :|
<end>
<start>
